X: 39041
T: Mr Dolph Morris' Strathspey
C: Pete Kier
R: strathspey
B: RSCDS 39-4
Z: 2009 John Chambers <jc:trillian.mit.edu>
M: C
L: 1/8
%--------------------
K: F
c>B \
| "F"A2 A>G "Dm"F>G A>F | "Gm"B>A G>F "C7"E<c d>e \
| "F"f>e d>c "Bb"d>c B>A | "Gm"B>A G>F "C7"E2 c>B |
| "F"A2 A>G "Dm"F>G A>F | "Gm"B<B G>F "C7"E<c d>e \
| "F"f>e d>c "Bb"d<D F<B | "C7"A>C E<G "F"[F2A,2] |]
c2 \
| "F"A<c c>A "Gm"B>c d>B | "C7"G<B B>G "F"A>B c>A \
| "Dm"F<A A>F "Gm"G>A B>G | "C"c<C C>C c<C C>c |
| "F"A<c c>A "Gm"B>c d>B | "C7"G<B B>G "F"A>B c>A \
| "Dm"f2 f2 "Bb"e>d c>B | "C7"A>C E<G "F"F2 |]
%%center Book39/39041-Mr_Dolph_Morris_Strathspey-1.abc

%%sep 1 1 500
%%sep 1 1 500

